24x24/mimetypes/application-x.allegorithmic.substance.svg

<svg xmlns="http://www.w3.org/2000/svg" width="24" height="24" version="1.1">
 <path style="opacity:0.2" d="m 5,2.5 c -0.554,0 -1,0.446 -1,1 v 18 c 0,0.554 0.446,1 1,1 h 14 c 0.554,0 1,-0.446 1,-1 v -13 l -6,-6 z"/>
 <path style="fill:#4caf50" d="M 5,2 C 4.446,2 4,2.446 4,3 v 18 c 0,0.554 0.446,1 1,1 h 14 c 0.554,0 1,-0.446 1,-1 V 8 L 15,7 14,2 Z"/>
 <path style="opacity:0.2" d="m 20,8.5 -6,-6 v 5 c 0,0.554 0.446,1 1,1 z"/>
 <path style="fill:#88cc8b" d="M 20,8 14,2 v 5 c 0,0.554 0.446,1 1,1 z"/>
 <path style="opacity:0.2;fill:#f4f4f7" d="M 5,2 C 4.446,2 4,2.446 4,3 v 0.5 c 0,-0.554 0.446,-1 1,-1 h 9 V 2 Z"/>
 <path style="opacity:0.2" d="m 12,9.944445 -5,2.5 v 2.222221 L 14.333334,17.111111 12,18.277777 9,16.888889 V 15.956 L 7,15.315 V 18 l 5,2.5 5,-2.5 V 15.777777 L 9.666666,13.333334 12,12.166666 15,13.555555 V 14.489 l 2,0.640445 v -2.685 z"/>
 <path style="fill:#f4f4f7" d="m 12,9.444445 -5,2.5 v 2.222221 L 14.333334,16.611111 12,17.777777 9,16.388889 V 15.456 L 7,14.815 V 17.5 l 5,2.5 5,-2.5 V 15.277777 L 9.666666,12.833334 12,11.666666 15,13.055555 V 13.989 l 2,0.640445 v -2.685 z"/>
</svg>

<svg xmlns="http://www.w3.org/2000/svg" width="24" height="24"><path style="opacity:.2" d="M5 2.5c-.554 0-1 .446-1 1v18c0 .554.446 1 1 1h14c.554 0 1-.446 1-1v-13l-6-6z"/><path style="fill:#4caf50" d="M5 2c-.554 0-1 .446-1 1v18c0 .554.446 1 1 1h14c.554 0 1-.446 1-1V8l-5-1-1-5z"/><path style="opacity:.2" d="m20 8.5-6-6v5c0 .554.446 1 1 1z"/><path style="fill:#88cc8b" d="m20 8-6-6v5c0 .554.446 1 1 1z"/><path style="opacity:.2;fill:#f4f4f7" d="M5 2c-.554 0-1 .446-1 1v.5c0-.554.446-1 1-1h9V2z"/><path style="opacity:.2" d="m12 9.944-5 2.5v2.223l7.333 2.444L12 18.278l-3-1.39v-.932l-2-.641V18l5 2.5 5-2.5v-2.222l-7.333-2.445L12 12.167l3 1.389v.933l2 .64v-2.685z"/><path style="fill:#f4f4f7" d="m12 9.444-5 2.5v2.223l7.333 2.444L12 17.778l-3-1.39v-.932l-2-.641V17.5l5 2.5 5-2.5v-2.222l-7.333-2.445L12 11.667l3 1.389v.933l2 .64v-2.685z"/></svg>
